7-animation/1-bezier-curve/bezier-vase.svg

<?xml version="1.0" encoding="UTF-8"?>
<svg width="110px" height="170px" viewBox="0 0 110 170" version="1.1" xmlns="http://www.w3.org/2000/svg" xmlns:xlink="http://www.w3.org/1999/xlink">
    <!-- Generator: sketchtool 55.2 (78181) - https://sketchapp.com -->
    <title>bezier-vase.svg</title>
    <desc>Created with sketchtool.</desc>
    <g id="animation" stroke="none" stroke-width="1" fill="none" fill-rule="evenodd">
        <g id="bezier-vase.svg">
            <g id="figure4-15" transform="translate(5.000000, 1.000000)">
                <path d="M32.0099502,161.208955 C12.5074627,121.606965 12.5074627,82.0049751 32.0099502,42.4029851 C38.5107794,29.2023217 38.5107794,16.0016584 32.0099502,2.80099502 L71.0149254,2.80099502 C64.5140962,16.0016584 64.5140962,29.2023217 71.0149254,42.4029851 C90.5174129,82.0049751 90.5174129,121.606965 71.0149254,161.208955 L32.0099502,161.208955 Z" id="Shape" stroke="#A0522D" stroke-width="2"></path>
                <path d="M32.0099502,2.80099502 L41.761194,22.60199 L2.75621891,101.80597 L32.0099502,161.208955" id="Shape" stroke="#000000" stroke-width="0.5" stroke-dasharray="2"></path>
                <path d="M71.0149254,2.80099502 L61.2636816,22.60199 L100.268657,101.80597 L71.0149254,161.208955" id="Shape" stroke="#000000" stroke-width="0.5" stroke-dasharray="2"></path>
                <g id="dot-link" transform="translate(49.562189, 0.820896)" fill="#FFFFFF" stroke="#000000">
                    <ellipse id="dot" cx="1.95024876" cy="1.9800995" rx="1.95024876" ry="1.9800995"></ellipse>
                </g>
                <g id="dot-link" transform="translate(30.059701, 0.820896)" fill="#FFFFFF" stroke="#000000">
                    <ellipse id="dot" cx="1.95024876" cy="1.9800995" rx="1.95024876" ry="1.9800995"></ellipse>
                </g>
                <g id="dot-link" transform="translate(39.810945, 20.621891)" fill="#FFFFFF" stroke="#000000">
                    <ellipse id="dot" cx="1.95024876" cy="1.9800995" rx="1.95024876" ry="1.9800995"></ellipse>
                </g>
                <g id="dot-link" transform="translate(30.059701, 40.422886)" fill="#FFFFFF" stroke="#000000">
                    <ellipse id="dot" cx="1.95024876" cy="1.9800995" rx="1.95024876" ry="1.9800995"></ellipse>
                </g>
                <g id="dot-link" transform="translate(0.805970, 99.825871)" fill="#FFFFFF" stroke="#000000">
                    <ellipse id="dot" cx="1.95024876" cy="1.9800995" rx="1.95024876" ry="1.9800995"></ellipse>
                </g>
                <g id="dot-link" transform="translate(30.059701, 159.228856)" fill="#FFFFFF" stroke="#000000">
                    <ellipse id="dot" cx="1.95024876" cy="1.9800995" rx="1.95024876" ry="1.9800995"></ellipse>
                </g>
                <g id="dot-link" transform="translate(69.064677, 0.820896)" fill="#FFFFFF" stroke="#000000">
                    <ellipse id="dot" cx="1.95024876" cy="1.9800995" rx="1.95024876" ry="1.9800995"></ellipse>
                </g>
                <g id="dot-link" transform="translate(59.313433, 20.621891)" fill="#FFFFFF" stroke="#000000">
                    <ellipse id="dot" cx="1.95024876" cy="1.9800995" rx="1.95024876" ry="1.9800995"></ellipse>
                </g>
                <g id="dot-link" transform="translate(69.064677, 40.422886)" fill="#FFFFFF" stroke="#000000">
                    <ellipse id="dot" cx="1.95024876" cy="1.9800995" rx="1.95024876" ry="1.9800995"></ellipse>
                </g>
                <g id="dot-link" transform="translate(98.318408, 99.825871)" fill="#FFFFFF" stroke="#000000">
                    <ellipse id="dot" cx="1.95024876" cy="1.9800995" rx="1.95024876" ry="1.9800995"></ellipse>
                </g>
                <g id="dot-link" transform="translate(69.064677, 159.228856)" fill="#FFFFFF" stroke="#000000">
                    <ellipse id="dot" cx="1.95024876" cy="1.9800995" rx="1.95024876" ry="1.9800995"></ellipse>
                </g>
            </g>
        </g>
    </g>
</svg>

<svg xmlns="http://www.w3.org/2000/svg" width="110" height="170" viewBox="0 0 110 170"><defs><style>@import url(https://fonts.googleapis.com/css?family=Open+Sans:bold,italic,bolditalic%7CPT+Mono);@font-face{font-family:&apos;PT Mono&apos;;font-weight:700;font-style:normal;src:local(&apos;PT MonoBold&apos;),url(/font/PTMonoBold.woff2) format(&apos;woff2&apos;),url(/font/PTMonoBold.woff) format(&apos;woff&apos;),url(/font/PTMonoBold.ttf) format(&apos;truetype&apos;)}</style></defs><g id="animation" fill="none" fill-rule="evenodd" stroke="none" stroke-width="1"><g id="figure4-15" transform="translate(5 1)"><path id="Shape" stroke="#AF6E24" stroke-width="2" d="M32.01 161.209c-19.503-39.602-19.503-79.204 0-118.806 6.5-13.2 6.5-26.401 0-39.602h39.005c-6.5 13.2-6.5 26.401 0 39.602 19.502 39.602 19.502 79.204 0 118.806H32.01z"/><path id="Shape" stroke="#181717" stroke-dasharray="2" stroke-width=".5" d="M32.01 2.801l9.751 19.801-39.005 79.204 29.254 59.403M71.015 2.801l-9.751 19.801 39.005 79.204-29.254 59.403"/><g id="dot-link" fill="#FFF" stroke="#181717" transform="translate(49.562 .82)"><ellipse id="dot" cx="1.95" cy="1.98" rx="1.95" ry="1.98"/></g><g id="dot-link" fill="#FFF" stroke="#181717" transform="translate(30.06 .82)"><ellipse id="dot" cx="1.95" cy="1.98" rx="1.95" ry="1.98"/></g><g id="dot-link" fill="#FFF" stroke="#181717" transform="translate(39.81 20.622)"><ellipse id="dot" cx="1.95" cy="1.98" rx="1.95" ry="1.98"/></g><g id="dot-link" fill="#FFF" stroke="#181717" transform="translate(30.06 40.423)"><ellipse id="dot" cx="1.95" cy="1.98" rx="1.95" ry="1.98"/></g><g id="dot-link" fill="#FFF" stroke="#181717" transform="translate(.806 99.826)"><ellipse id="dot" cx="1.95" cy="1.98" rx="1.95" ry="1.98"/></g><g id="dot-link" fill="#FFF" stroke="#181717" transform="translate(30.06 159.229)"><ellipse id="dot" cx="1.95" cy="1.98" rx="1.95" ry="1.98"/></g><g id="dot-link" fill="#FFF" stroke="#181717" transform="translate(69.065 .82)"><ellipse id="dot" cx="1.95" cy="1.98" rx="1.95" ry="1.98"/></g><g id="dot-link" fill="#FFF" stroke="#181717" transform="translate(59.313 20.622)"><ellipse id="dot" cx="1.95" cy="1.98" rx="1.95" ry="1.98"/></g><g id="dot-link" fill="#FFF" stroke="#181717" transform="translate(69.065 40.423)"><ellipse id="dot" cx="1.95" cy="1.98" rx="1.95" ry="1.98"/></g><g id="dot-link" fill="#FFF" stroke="#181717" transform="translate(98.318 99.826)"><ellipse id="dot" cx="1.95" cy="1.98" rx="1.95" ry="1.98"/></g><g id="dot-link" fill="#FFF" stroke="#181717" transform="translate(69.065 159.229)"><ellipse id="dot" cx="1.95" cy="1.98" rx="1.95" ry="1.98"/></g></g></g></svg>
